polaris-icons/icons/new-icons/PaintBrushMajor.svg

<svg width="20" height="20" viewBox="0 0 20 20" fill="none" xmlns="http://www.w3.org/2000/svg">
<path fill-rule="evenodd" clip-rule="evenodd" d="M11.6768 4.73729C11.5791 4.63965 11.4209 4.63966 11.3232 4.73729L8.48744 7.57307C8.38981 7.6707 8.38981 7.82899 8.48744 7.92662L12.0732 11.5124C12.1706 11.6098 12.3284 11.61 12.4261 11.5131L12.4268 11.5124L15.2626 8.67663C15.3602 8.57899 15.3602 8.4207 15.2626 8.32307L13.5001 6.56057L13.0303 7.03033C12.7374 7.32322 12.2625 7.32322 11.9696 7.03033C11.6767 6.73744 11.6767 6.26256 11.9696 5.96967L12.4394 5.49991L11.6768 4.73729ZM10.2626 3.67663L5.67678 8.26241C4.99336 8.94583 4.99336 10.0539 5.67678 10.7373L5.93934 10.9998L3.96967 12.9695C3.12449 13.8147 3.12449 15.185 3.96967 16.0302C4.81485 16.8754 6.18515 16.8754 7.03033 16.0302L9 14.0605L9.26256 14.3231C9.94598 15.0065 11.054 15.0065 11.7374 14.3231L16.3232 9.73728C17.0066 9.05387 17.0066 7.94583 16.3232 7.26241L12.7374 3.67663C12.054 2.99321 10.946 2.99321 10.2626 3.67663ZM6.73744 9.32307L7.26253 8.79798C7.31201 8.86397 7.36676 8.92727 7.42678 8.98729L11.0126 12.5731C11.0726 12.6331 11.1359 12.6878 11.2019 12.7373L10.6768 13.2624C10.5791 13.36 10.4209 13.36 10.3232 13.2624L6.73744 9.67663C6.63981 9.57899 6.63981 9.4207 6.73744 9.32307ZM7 12.0605L5.03033 14.0302C4.77094 14.2896 4.77094 14.7101 5.03033 14.9695C5.28972 15.2289 5.71028 15.2289 5.96967 14.9695L7.93934 12.9998L7 12.0605Z" fill="#4A4A4A"/>
</svg>

<svg viewBox="0 0 20 20" xmlns="http://www.w3.org/2000/svg"><path fill-rule="evenodd" d="M11.677 4.737a.25.25 0 0 0-.354 0l-2.836 2.836a.25.25 0 0 0 0 .354l3.586 3.585a.25.25 0 0 0 .353.001l2.837-2.836a.25.25 0 0 0 0-.354l-1.763-1.762-.47.47a.75.75 0 0 1-1.06-1.061l.47-.47-.763-.763Zm-1.414-1.06-4.586 4.585a1.75 1.75 0 0 0 0 2.475l.262.263-1.97 1.97a2.164 2.164 0 0 0 3.061 3.06l1.97-1.97.263.263a1.75 1.75 0 0 0 2.474 0l4.586-4.586a1.75 1.75 0 0 0 0-2.475l-3.586-3.585a1.75 1.75 0 0 0-2.474 0Zm-3.526 5.646.526-.525c.049.066.104.13.164.19l3.586 3.585c.06.06.123.115.189.164l-.525.525a.25.25 0 0 1-.354 0l-3.586-3.585a.25.25 0 0 1 0-.354Zm.263 2.737-1.97 1.97a.664.664 0 1 0 .94.94l1.97-1.97-.94-.94Z" fill="#5C5F62"/></svg>
